SVG_Azure_Grouped/Management/Azure Arc SQL Server.svg

<?xml version="1.0" encoding="UTF-8" standalone="no"?>
<!-- Generated by Microsoft Visio, SVG Export Azure Arc SQL Server.svg Page-1 -->

<svg
   xmlns:dc="http://purl.org/dc/elements/1.1/"
   xmlns:cc="http://creativecommons.org/ns#"
   xmlns:rdf="http://www.w3.org/1999/02/22-rdf-syntax-ns#"
   xmlns:svg="http://www.w3.org/2000/svg"
   xmlns="http://www.w3.org/2000/svg"
   xmlns:sodipodi="http://sodipodi.sourceforge.net/DTD/sodipodi-0.dtd"
   xmlns:inkscape="http://www.inkscape.org/namespaces/inkscape"
   width="0.74544632in"
   height="0.78745645in"
   viewBox="0 0 53.672154 56.697175"
   xml:space="preserve"
   class="st8"
   version="1.1"
   id="svg56"
   sodipodi:docname="Azure Arc SQL Server.svg"
   style="font-size:12px;overflow:visible;color-interpolation-filters:sRGB;fill:none;fill-rule:evenodd;stroke-linecap:square;stroke-miterlimit:3"
   inkscape:version="0.92.5 (2060ec1f9f, 2020-04-08)"><metadata
   id="metadata60"><rdf:RDF><cc:Work
       rdf:about=""><dc:format>image/svg+xml</dc:format><dc:type
         rdf:resource="http://purl.org/dc/dcmitype/StillImage" /></cc:Work></rdf:RDF></metadata><sodipodi:namedview
   pagecolor="#ffffff"
   bordercolor="#666666"
   borderopacity="1"
   objecttolerance="10"
   gridtolerance="10"
   guidetolerance="10"
   inkscape:pageopacity="0"
   inkscape:pageshadow="2"
   inkscape:window-width="640"
   inkscape:window-height="480"
   id="namedview58"
   showgrid="false"
   inkscape:zoom="1.4193119"
   inkscape:cx="35.783062"
   inkscape:cy="37.785095"
   inkscape:window-x="0"
   inkscape:window-y="0"
   inkscape:window-maximized="0"
   inkscape:current-layer="svg56" />
	<style
   type="text/css"
   id="style2">
	<![CDATA[
		.st1 {fill:#5ea0ef;stroke:none;stroke-linecap:butt;stroke-width:34}
		.st2 {fill:#50e6ff;stroke:none;stroke-linecap:butt;stroke-width:34}
		.st3 {fill:url(#grad0-10);stroke:none;stroke-linecap:butt;stroke-width:34}
		.st4 {fill:#e8e8e8}
		.st5 {stroke:none;stroke-linecap:butt;stroke-width:34}
		.st6 {fill:#50e6ff}
		.st7 {fill:#198ab3;stroke:none;stroke-linecap:butt;stroke-width:34}
		.st8 {fill:none;fill-rule:evenodd;font-size:12px;overflow:visible;stroke-linecap:square;stroke-miterlimit:3}
	]]>
	</style>

	<defs
   id="Patterns_And_Gradients">
		<linearGradient
   id="grad0-10"
   x1="0"
   y1="78.356901"
   x2="37.574872"
   y2="78.356901"
   gradientTransform="scale(0.92961088,1.0757189)"
   gradientUnits="userSpaceOnUse">
			<stop
   offset="0"
   stop-color="#005ba1"
   stop-opacity="1"
   id="stop4" />
			<stop
   offset="0.52"
   stop-color="#0078d4"
   stop-opacity="1"
   id="stop6" />
			<stop
   offset="1"
   stop-color="#005ba1"
   stop-opacity="1"
   id="stop8" />
		</linearGradient>
	</defs>
	<g
   id="g54"
   transform="translate(-34.000368,-33.9963)">
		<title
   id="title12">Page-1</title>
		<g
   id="group12930-1"
   transform="translate(33.9071,-34.0157)">
			<title
   id="title14">Azure Arc SQL Server.12930</title>
			<g
   id="group12931-2">
				<title
   id="title16">Sheet.12931</title>
				<g
   id="shape12932-3"
   transform="translate(0.0746201)">
					<title
   id="title18">Sheet.12932</title>
					<path
   d="m 53.61,115.83 c -0.5,2.22 -3.24,4.4 -8.19,6.1 a 67.5472,68.2711 0 0 1 -37.95,0.06 c -4.56,-1.63 -7.02,-3.7 -7.4,-5.83 -0.07,-0.37 0,-6.22 0,-6.22 l 53.62,-0.5 c 0,0 -0.02,6.12 -0.08,6.39 z"
   class="st1"
   id="path20"
   inkscape:connector-curvature="0"
   style="fill:#5ea0ef;stroke:none;stroke-width:34;stroke-linecap:butt" />
				</g>
				<g
   id="shape12933-5"
   transform="rotate(-0.575,-521.93032,103.43281)">
					<title
   id="title23">Sheet.12933</title>
					<ellipse
   cx="26.8374"
   cy="115.331"
   rx="26.8374"
   ry="9.3779898"
   class="st2"
   id="ellipse25"
   style="fill:#50e6ff;stroke:none;stroke-width:34;stroke-linecap:butt" />
				</g>
				<g
   id="shape12934-7"
   transform="translate(9.46269,-9.88204)">
					<title
   id="title28">Sheet.12934</title>
					<path
   d="M 17.46,90.67 C 7.82,90.67 0,87.92 0,84.29 v 34.03 c 0,3.5 7.69,6.33 17.21,6.39 h 0.25 c 9.65,0 17.47,-2.76 17.47,-6.39 V 84.29 c 0.01,3.55 -7.81,6.38 -17.47,6.38 z"
   class="st3"
   id="path30"
   inkscape:connector-curvature="0"
   style="fill:url(#grad0-10);stroke:none;stroke-width:34;stroke-linecap:butt" />
				</g>
				<g
   id="shape12935-11"
   transform="translate(9.47521,-43.918)">
					<title
   id="title33">Sheet.12935</title>
					<path
   d="m 34.93,118.32 c 0,3.55 -7.83,6.39 -17.47,6.39 -9.63,0 -17.46,-2.74 -17.46,-6.39 0,-3.64 7.82,-6.39 17.45,-6.39 9.63,0 17.46,2.76 17.46,6.39 z"
   class="st4"
   id="path35"
   inkscape:connector-curvature="0"
   style="fill:#e8e8e8" />
					<path
   d="m 34.93,118.32 c 0,3.55 -7.83,6.39 -17.47,6.39 -9.63,0 -17.46,-2.74 -17.46,-6.39 0,-3.64 7.82,-6.39 17.45,-6.39 9.63,0 17.46,2.76 17.46,6.39"
   class="st5"
   id="path37"
   inkscape:connector-curvature="0"
   style="stroke:none;stroke-width:34;stroke-linecap:butt" />
				</g>
				<g
   id="shape12936-14"
   transform="translate(13.534,-46.7519)">
					<title
   id="title40">Sheet.12936</title>
					<path
   d="m 26.81,120.63 c 0,2.26 -6.02,4.08 -13.4,4.08 -7.39,0 -13.41,-1.83 -13.41,-4.08 0,-2.25 6.02,-4.05 13.39,-4.05 7.38,0 13.41,1.81 13.41,4.05 z"
   class="st6"
   id="path42"
   inkscape:connector-curvature="0"
   style="fill:#50e6ff" />
					<path
   d="m 26.81,120.63 c 0,2.26 -6.02,4.08 -13.4,4.08 -7.39,0 -13.41,-1.83 -13.41,-4.08 0,-2.25 6.02,-4.05 13.39,-4.05 7.38,0 13.41,1.81 13.41,4.05"
   class="st5"
   id="path44"
   inkscape:connector-curvature="0"
   style="stroke:none;stroke-width:34;stroke-linecap:butt" />
				</g>
				<g
   id="shape12937-17"
   transform="translate(16.3285,-46.7456)">
					<title
   id="title47">Sheet.12937</title>
					<path
   d="m 10.6,121.63 a 31.4782,31.8156 -180 0 0 -10.6,1.58 31.1277,31.4613 -180 0 0 10.6,1.5 30.3266,30.6516 -180 0 0 10.6,-1.58 32.3325,32.679 -180 0 0 -10.6,-1.5 z"
   class="st7"
   id="path49"
   inkscape:connector-curvature="0"
   style="fill:#198ab3;stroke:none;stroke-width:34;stroke-linecap:butt" />
				</g>
			</g>
		</g>
	</g>
</svg>

<?xml version="1.0" encoding="UTF-8" standalone="no"?>
<!DOCTYPE svg PUBLIC "-//W3C//DTD SVG 1.1//EN" "http://www.w3.org/Graphics/SVG/1.1/DTD/svg11.dtd">
<!-- Generated by Microsoft Visio, SVG Export Azure Arc SQL Server.svg Page-1 -->
<svg xmlns="http://www.w3.org/2000/svg" xmlns:xlink="http://www.w3.org/1999/xlink" xmlns:ev="http://www.w3.org/2001/xml-events"
		width="1.68993in" height="1.73206in" viewBox="0 0 121.675 124.709" xml:space="preserve" color-interpolation-filters="sRGB"
		class="st8">
	<style type="text/css">
	<![CDATA[
		.st1 {fill:#5ea0ef;stroke:none;stroke-linecap:butt;stroke-width:34}
		.st2 {fill:#50e6ff;stroke:none;stroke-linecap:butt;stroke-width:34}
		.st3 {fill:url(#grad0-10);stroke:none;stroke-linecap:butt;stroke-width:34}
		.st4 {fill:#e8e8e8}
		.st5 {stroke:none;stroke-linecap:butt;stroke-width:34}
		.st6 {fill:#50e6ff}
		.st7 {fill:#198ab3;stroke:none;stroke-linecap:butt;stroke-width:34}
		.st8 {fill:none;fill-rule:evenodd;font-size:12px;overflow:visible;stroke-linecap:square;stroke-miterlimit:3}
	]]>
	</style>

	<defs id="Patterns_And_Gradients">
		<linearGradient id="grad0-10" x1="0" y1="0" x2="1" y2="0" gradientTransform="rotate(0 0.5 0.5)">
			<stop offset="0" stop-color="#005ba1" stop-opacity="1"/>
			<stop offset="0.52" stop-color="#0078d4" stop-opacity="1"/>
			<stop offset="1" stop-color="#005ba1" stop-opacity="1"/>
		</linearGradient>
	</defs>
	<g>
		<title>Page-1</title>
		<g id="group12637-1" transform="translate(33.9071,-34.0157)">
			<title>Azure Arc SQL Server.12637</title>
			<g id="group12638-2">
				<title>Sheet.12638</title>
				<g id="shape12639-3" transform="translate(0.0746201,0)">
					<title>Sheet.12639</title>
					<path d="M53.61 115.83 C53.11 118.05 50.37 120.23 45.42 121.93 A67.5472 68.2711 0 0 1 7.47 121.99 C2.91 120.36
								 0.45 118.29 0.07 116.16 C0 115.79 0.07 109.94 0.07 109.94 L53.69 109.44 C53.69 109.44 53.67 115.56
								 53.61 115.83 Z" class="st1"/>
				</g>
				<g id="shape12640-5" transform="translate(-1.06428,-5.23261) rotate(-0.575)">
					<title>Sheet.12640</title>
					<ellipse cx="26.8374" cy="115.331" rx="26.8374" ry="9.37799" class="st2"/>
				</g>
				<g id="shape12641-7" transform="translate(9.46269,-9.88204)">
					<title>Sheet.12641</title>
					<path d="M17.46 90.67 C7.82 90.67 0 87.92 0 84.29 L0 118.32 C0 121.82 7.69 124.65 17.21 124.71 L17.46 124.71
								 C27.11 124.71 34.93 121.95 34.93 118.32 L34.93 84.29 C34.94 87.84 27.12 90.67 17.46 90.67 Z"
							class="st3"/>
				</g>
				<g id="shape12642-11" transform="translate(9.47521,-43.918)">
					<title>Sheet.12642</title>
					<path d="M34.93 118.32 C34.93 121.87 27.1 124.71 17.46 124.71 C7.83 124.71 0 121.97 0 118.32 C0 114.68 7.82 111.93
								 17.45 111.93 C27.08 111.93 34.91 114.69 34.91 118.32 L34.93 118.32 Z" class="st4"/>
					<path d="M34.93 118.32 C34.93 121.87 27.1 124.71 17.46 124.71 C7.83 124.71 0 121.97 0 118.32 C0 114.68 7.82 111.93
								 17.45 111.93 C27.08 111.93 34.91 114.69 34.91 118.32" class="st5"/>
				</g>
				<g id="shape12643-14" transform="translate(13.534,-46.7519)">
					<title>Sheet.12643</title>
					<path d="M26.81 120.63 C26.81 122.89 20.79 124.71 13.41 124.71 C6.02 124.71 0 122.88 0 120.63 C0 118.38 6.02
								 116.58 13.39 116.58 C20.77 116.58 26.8 118.39 26.8 120.63 L26.81 120.63 Z" class="st6"/>
					<path d="M26.81 120.63 C26.81 122.89 20.79 124.71 13.41 124.71 C6.02 124.71 0 122.88 0 120.63 C0 118.38 6.02
								 116.58 13.39 116.58 C20.77 116.58 26.8 118.39 26.8 120.63" class="st5"/>
				</g>
				<g id="shape12644-17" transform="translate(16.3285,-46.7456)">
					<title>Sheet.12644</title>
					<path d="M10.6 121.63 A31.4782 31.8156 -180 0 0 0 123.21 A31.1277 31.4613 -180 0 0 10.6 124.71 A30.3266 30.6516
								 -180 0 0 21.2 123.13 A32.3325 32.679 -180 0 0 10.6 121.63 Z" class="st7"/>
				</g>
			</g>
		</g>
	</g>
</svg>
